X:1
T:Title
L:1/8
Q:1/4=90
M:6/8
K:Bb
V:1 treble nm="Church Organ, Staff"
V:1
 F G2 A B2 | F G2 A B2 | c d2 c d2 | c B2 c c2 | c/c<ee/ ed>c | cBB A B2 | c d2 c d2 | %7
w: By~T.~T.~Noble * * *|||||||
 =e f2- f f2 | F f2- f f2 | F f2- f f2 | F G2 G A2 | A B2 c e2 | d c2- c3- | c B2- B B2 |] %14
w: |||||||

